svg/flag_variant_off_outline.svg

<svg xmlns="http://www.w3.org/2000/svg" viewBox="0 0 24 24"><path d="M22.1 21.5 2.4 1.7 1.1 3 5 6.9V21h2v-7s.8-1.6 3.2-1.9l10.7 10.7zM7 11.5V8.9l1.7 1.7c-1 .4-1.7.9-1.7.9m2.4-5.3L7.8 4.6c.9-.3 2-.6 3.2-.6 3 0 3 2 5 2 3 0 4-2 4-2v8s-.8 1.5-2.9 1.9L15 11.8c.3.1.6.2 1 .2 2 0 2-1 2-1V7.5S17 8 16 8c-2 0-3-2-5-2-.5 0-1.1.1-1.6.2"/></svg>

<svg xmlns="http://www.w3.org/2000/svg" id="mdi-flag-variant-off-outline" viewBox="0 0 24 24"><path d="M22.1 21.5L2.4 1.7L1.1 3L5 6.9V21H7V14C7 14 7.8 12.4 10.2 12.1L20.9 22.8L22.1 21.5M7 11.5V8.9L8.7 10.6C7.7 11 7 11.5 7 11.5M9.4 6.2L7.8 4.6C8.7 4.3 9.8 4 11 4C14 4 14 6 16 6C19 6 20 4 20 4V12C20 12 19.2 13.5 17.1 13.9L15 11.8C15.3 11.9 15.6 12 16 12C18 12 18 11 18 11V7.5C18 7.5 17 8 16 8C14 8 13 6 11 6C10.5 6 9.9 6.1 9.4 6.2Z" /></svg>
